X: 42887
T: Will The Barber
R: jig
M: 6/8
K: Gmajor
|:G2A BcB|AGF G2D|G2A BcB|AGF G3:|
|:GFG E2E|ABG FED|GFG EcB|AGF G3:|
|:d2B d2B|ABc BAG|d2B d2B|AGF G3:|
|:E2G D2G|ABc BAG|E2G D2G|AGF G3:|

